X:50
T:Admiral Rodney's. ThoH.050
Q:1/2=70
M:C
L:1/8
B:Thompson's Compleat Collection of 120 Favourite Hornpipes.
Z:Village Music Project, Simon Wilson 2016
O:England.
K:Bb
{a}b4{g}Tf3_a|{a/}Tgf/e/ {e/}Tdc/B/ {B/}A3B|{d/}cB{B/}AG FE{E/}DC|B,2B,2{C}B,4|
b2b2-bagf|=e2e2-edcB|(Ac)f2((3gba) ((3gf=e)|1f2F2fagf:|2f4F4||
|:(_aga>b) (agf>e)|(def>g) (fed>c)|(=Bcd>e) (dcB>_A)|(GFE>D)C4|
(cde>f) (gfe>d)|(cde>f) (edc>B)|(ABc>d) (cBA>G)|FED>CB,4|
b4f3a|{a/}g(f/e/) d(c/B/){B}A3B|cBA>G FED>C|B,2B,2B,4|
(DF)B2(GE)c2|AF (ec) (AcB>A)|(Bba>g) (fed>c)|B2B,2B,4:|

